X:1
T: Sergeant Early' Jig
C:
R:Jig
Q:180
K:D
M:6/8
L:1/16
A2|:F2E2D2 D2E2D2|G2E2G2 c4e2|d2c2A2 e2f2d2|e2c2A2 A4G2|
F2E2D2 E2F2G2|A2G2E2 =c4e2|d2c2A2 G2E2A2|1D2E2D2 D4A2:|2D2E2D2 D4d2|
c2B2A2 B2c2d2|e2f2e2 e4d2|d2c2d2 e2f2d2|e2c2A2 A4d2|
c2B2A2 B2c2d2|e2a2g2 e4d2|d2c2A2 G2E2A2|1D2E2D2 E4d2:|2D2E2D2 E4||
